X:1
T:Ger the Rigger
H:was Anon048
O:June 2003
S:Thomas Bending, November 2003
M:4/4
L:1/4
R:Polka
K:A
e A e A | e/f/e/d/ c A | d d d/e/f/g/ | a e f e |\
e A e A | e/f/e/d/ c A | d2 c2 | B/A/B/c/ A2 |]
